Catalina-light/apps/scalable/preferences-system-splash.svg

<?xml version="1.0" encoding="UTF-8" standalone="no"?>
<svg
   height="136.53333"
   viewBox="0 0 136.53333 136.53333"
   width="136.53333"
   version="1.1"
   id="svg70"
   sodipodi:docname="preferences-system-splash.svg"
   inkscape:version="1.1.2 (0a00cf5339, 2022-02-04)"
   xmlns:inkscape="http://www.inkscape.org/namespaces/inkscape"
   xmlns:sodipodi="http://sodipodi.sourceforge.net/DTD/sodipodi-0.dtd"
   xmlns:xlink="http://www.w3.org/1999/xlink"
   xmlns="http://www.w3.org/2000/svg"
   xmlns:svg="http://www.w3.org/2000/svg">
  <defs
     id="defs74">
    <linearGradient
       id="o"
       gradientUnits="userSpaceOnUse"
       x1="14"
       x2="23"
       y1="10"
       y2="19"
       gradientTransform="matrix(3.6032729,0,0,3.6032729,11.649657,9.5526259)">
      <stop
         offset="0"
         stop-color="#292c2f"
         id="stop48" />
      <stop
         offset="1"
         stop-color="#292c2f"
         stop-opacity=".030612"
         id="stop50" />
    </linearGradient>
    <linearGradient
       id="n"
       gradientUnits="userSpaceOnUse"
       x1="19.513672"
       x2="15"
       y1="15.554688"
       y2="11"
       gradientTransform="matrix(3.6032729,0,0,3.6032729,11.649657,9.5526259)">
      <stop
         offset="0"
         stop-color="#f3f3f3"
         id="stop43" />
      <stop
         offset="1"
         stop-color="#fcfcfc"
         stop-opacity="0"
         id="stop45" />
    </linearGradient>
    <linearGradient
       id="m"
       gradientUnits="userSpaceOnUse"
       x1="16"
       x2="16"
       y1="18"
       y2="6"
       gradientTransform="matrix(3.6032729,0,0,3.6032729,11.649657,9.5526259)">
      <stop
         offset="0"
         stop-color="#f0f0f0"
         id="stop38" />
      <stop
         offset="1"
         stop-color="#fcfcfc"
         id="stop40" />
    </linearGradient>
  </defs>
  <sodipodi:namedview
     id="namedview72"
     pagecolor="#ffffff"
     bordercolor="#666666"
     borderopacity="1.0"
     inkscape:pageshadow="2"
     inkscape:pageopacity="0.0"
     inkscape:pagecheckerboard="0"
     showgrid="false"
     inkscape:zoom="1.1627198"
     inkscape:cx="-242.10476"
     inkscape:cy="-1.2900787"
     inkscape:window-width="1920"
     inkscape:window-height="1026"
     inkscape:window-x="0"
     inkscape:window-y="28"
     inkscape:window-maximized="1"
     inkscape:current-layer="svg70" />
  <linearGradient
     id="a">
    <stop
       offset="0"
       stop-color="#909090"
       id="stop2" />
    <stop
       offset="1"
       stop-color="#636363"
       stop-opacity="0"
       id="stop4" />
  </linearGradient>
  <radialGradient
     id="b"
     cx="199.2227"
     cy="60.977612"
     gradientTransform="matrix(1.0118581 .00000003 -.00000015 5.095797 -134.28081 -251.22589)"
     gradientUnits="userSpaceOnUse"
     r="62.147919">
    <stop
       offset="0"
       stop-color="#e6e6e8"
       id="stop7" />
    <stop
       offset="1"
       stop-color="#cbccce"
       id="stop9" />
  </radialGradient>
  <radialGradient
     id="c"
     cx="199.2227"
     cy="60.977612"
     gradientTransform="matrix(1.3102503 -.00000004 .0000001 3.6151362 -193.72731 -160.9387)"
     gradientUnits="userSpaceOnUse"
     r="62.147919">
    <stop
       offset="0"
       stop-color="#ececef"
       id="stop12" />
    <stop
       offset="1"
       stop-color="#cbccce"
       stop-opacity="0"
       id="stop14" />
  </radialGradient>
  <filter
     id="d"
     color-interpolation-filters="sRGB"
     height="1.0346286"
     width="1.0289602"
     x="-0.014480092"
     y="-0.017314288">
    <feGaussianBlur
       stdDeviation=".74992302"
       id="feGaussianBlur17" />
  </filter>
  <linearGradient
     id="e"
     gradientUnits="userSpaceOnUse"
     x1="174.78751"
     x2="174.86426"
     y1="109.46546"
     y2="118.12492">
    <stop
       offset="0"
       stop-color="#909090"
       id="stop20" />
    <stop
       offset="1"
       stop-color="#727272"
       stop-opacity="0"
       id="stop22" />
  </linearGradient>
  <radialGradient
     id="f"
     cx="178.78711"
     cy="120.70432"
     gradientTransform="matrix(3.8591081 -.00000023 0 .13879872 -511.17169 103.95076)"
     gradientUnits="userSpaceOnUse"
     r="22.055489"
     xlink:href="#a" />
  <filter
     id="g"
     color-interpolation-filters="sRGB"
     height="2.0080005"
     width="1.0499835"
     x="-0.024991737"
     y="-0.50400025">
    <feGaussianBlur
       stdDeviation=".32830532"
       id="feGaussianBlur26" />
  </filter>
  <filter
     id="h"
     color-interpolation-filters="sRGB"
     height="1.4908995"
     width="1.1609335"
     x="-0.080466729"
     y="-0.24544975">
    <feGaussianBlur
       stdDeviation="1.4789442"
       id="feGaussianBlur29" />
  </filter>
  <linearGradient
     id="i"
     gradientUnits="userSpaceOnUse"
     x1="183.0631"
     x2="183.0631"
     xlink:href="#a"
     y1="129.42332"
     y2="127.06073" />
  <linearGradient
     id="j"
     gradientUnits="userSpaceOnUse"
     x1="23.844025"
     x2="23.815981"
     y1="17.574459"
     y2="85.150604">
    <stop
       offset="0"
       stop-color="#1bd2fa"
       id="stop33" />
    <stop
       offset="1"
       stop-color="#1c7ef2"
       id="stop35" />
  </linearGradient>
  <rect
     fill="#1a1a1a"
     filter="url(#d)"
     height="103.94971"
     opacity=".887"
     rx="5.66165"
     width="124.29584"
     x="5.156375"
     y="8.778809"
     id="rect38" />
  <rect
     fill="url(#b)"
     height="103.94971"
     rx="5.66165"
     width="124.29584"
     x="5.156375"
     y="8.778809"
     id="rect40" />
  <rect
     fill="url(#c)"
     height="103.94971"
     rx="5.66165"
     width="124.29584"
     x="5.156375"
     y="8.778809"
     id="rect42" />
  <path
     d="m10.817921 8.7780044c-3.1365599 0-5.6621099 2.5255546-5.6621099 5.6621086v75.664063h124.2968689v-75.664063c0-3.136554-2.52555-5.6621086-5.66211-5.6621086z"
     fill="#080808"
     id="path44" />
  <path
     d="m10.317644 12.353147h113.49406v73.328949h-113.49406z"
     fill="url(#j)"
     id="path46" />
  <path
     d="m5.1558111 106.01043v1.05664c0 3.13655 2.52555 5.6621 5.6621099 5.6621h112.972649c3.13656 0 5.66211-2.52555 5.66211-5.6621v-1.05664c0 3.13655-2.52555 5.6621-5.66211 5.6621h-112.972649c-3.1365599 0-5.6621099-2.52555-5.6621099-5.6621z"
     fill="#afafaf"
     id="path48" />
  <g
     transform="translate(-111.48282 -1.473949)"
     id="g62">
    <path
       d="m194.33847 114.94773c-.0882 3.69949-.94643 7.82167 4.95064 11.33436 4.7067 2.92579-2.61144 3.12671-4.42952 3.12671h-5.66718c-8.82592 0-17.65185 0-26.47777 0-1.81808 0-9.13622-.20092-4.42952-3.12671 5.89706-3.51269 5.03886-7.63487 4.95064-11.33436z"
       filter="url(#h)"
       id="path50" />
    <path
       d="m194.33847 113.47378c-.0882 3.69949-.94643 7.82167 4.95064 11.33436 4.7067 2.92579-2.61144 3.12671-4.42952 3.12671-10.49206.46272-21.16242.7623-32.14495 0-1.81808 0-9.13622-.20092-4.42952-3.12671 5.89706-3.51269 5.03886-7.63487 4.95064-11.33436z"
       fill="#e0e1e6"
       id="path52" />
    <path
       d="m194.33847 113.47378c-.0882 3.69949-.94643 7.82167 4.95064 11.33436 4.7067 2.92579-2.61144 3.12671-4.42952 3.12671h-5.66718c-8.82592 0-17.65185 0-26.47777 0-1.81808 0-9.13622-.20092-4.42952-3.12671 5.89706-3.51269 5.03886-7.63487 4.95064-11.33436z"
       fill="url(#e)"
       id="path54" />
    <path
       d="m194.33847 113.47378c-.0882 3.69949-.94643 7.82167 4.95064 11.33436 4.7067 2.92579-2.61144 3.12671-4.42952 3.12671h-5.66718c-8.82592 0-17.65185 0-26.47777 0-1.81808 0-9.13622-.20092-4.42952-3.12671 5.89706-3.51269 5.03886-7.63487 4.95064-11.33436z"
       fill="url(#f)"
       id="path56" />
    <ellipse
       cx="178.28802"
       cy="127.15317"
       fill="#fff"
       filter="url(#g)"
       opacity=".887"
       rx="15.763866"
       ry=".781679"
       id="ellipse58" />
    <path
       d="m194.33847 113.47378c-.0882 3.69949-.94643 7.82167 4.95064 11.33436 4.7067 2.92579-2.61144 3.12671-4.42952 3.12671h-5.66718c-8.82592 0-17.65185 0-26.47777 0-1.81808 0-9.13622-.20092-4.42952-3.12671 5.89706-3.51269 5.03886-7.63487 4.95064-11.33436z"
       fill="url(#i)"
       id="path60" />
  </g>
  <path
     d="m71.574021 102.89623c-.16003.36969-.34945.70998-.56891 1.02284-.29914.42652-.54408.72174-.73285.8857-.29261.26911-.60613.4069-.94186.41475-.24102 0-.53167-.0687-.87001-.2077-.33945-.13848-.6514-.20705-.93664-.20705-.29915 0-.61998.0687-.96315.20705-.3437.13913-.62057.21162-.83226.21882-.32195.0137-.64285-.12802-.96316-.42587-.20444-.1783-.46015-.48401-.76648-.91705-.32868-.46244-.59889-.99867-.81058-1.61005-.22671-.66033-.34036-1.29979-.34036-1.91887 0-.709129.15323-1.320749.46015-1.833297.24121-.41168.56211-.73643.96374-.97484.40163-.2384.83559-.35988 1.30293-.36765.25572 0 .59105.0791 1.00777.23454.41554.15598.68236.23507.79934.23507.0875 0 .38386-.0925.88634-.27687.47518-.171.87622-.2418 1.20476-.21391.89026.0718 1.5591.4228 2.00391 1.05506-.79621.482408-1.19007 1.158128-1.18223 2.024917.007.6752.25212 1.23703.7335 1.68314.21816.20707.46179.36709.73285.48075-.0588.17044-.12084.33376-.1868.49052zm-2.04179-8.034565c0 .5292-.19334 1.02331-.5787 1.480648-.46506.5437-1.02756.85787-1.63755.80829-.008-.0634-.0123-.13031-.0123-.20052 0-.50803.22116-1.051724.61391-1.496261.19608-.225079.44546-.412238.74787-.561532.30176-.147062.5872-.228391.85564-.242321.008.07076.0112.141499.0112.211686z"
     fill="#1e1f28"
     stroke-width=".065316"
     id="path64" />
  <path
     d="m10.317921 12.352223v73.330078h113.494139v-73.330078zm.55273.507812h112.480469v72.361328h-112.480469z"
     fill-opacity=".211982"
     id="path66" />
  <path
     d="m10.818359 9.0273438c-3.1365595 0-5.662109 2.5255552-5.662109 5.6621092v75.414063h124.29687v-75.414063c0-3.136554-2.52554-5.6621092-5.6621-5.6621092zm-.5 5.3261722h113.494141v71.328125h-113.494141z"
     fill="#080808"
     id="path68" />
  <path
     d="m 69.618724,31.172268 a 21.619638,21.619638 0 0 0 -15.602457,6.333877 21.619638,21.619638 0 0 0 0,30.571522 L 71.159966,85.221363 H 123.35112 V 76.269481 L 84.58779,37.506145 A 21.619638,21.619638 0 0 0 69.618724,31.172268 Z"
     fill="url(#o)"
     opacity="0.25"
     id="path81"
     style="fill:url(#o);stroke-width:3.60327" />
  <path
     d="M 69.302029,31.172268 A 21.619638,21.619638 0 0 0 47.682391,52.791906 21.619638,21.619638 0 0 0 69.302029,74.411545 21.619638,21.619638 0 0 0 90.921667,52.791906 21.619638,21.619638 0 0 0 69.302029,31.172268 Z m 0,3.603274 A 18.016427,18.016427 0 0 1 87.318394,52.791906 18.016427,18.016427 0 0 1 69.302029,70.808271 18.016427,18.016427 0 0 1 51.285664,52.791906 18.016427,18.016427 0 0 1 69.302029,34.775542 Z"
     fill="url(#n)"
     id="path83"
     style="fill:url(#n);stroke-width:3.60327" />
  <path
     d="M 69.302029,31.172268 A 21.619576,21.619576 0 0 0 47.682391,52.791906 21.619576,21.619576 0 0 0 69.302029,74.411545 21.619576,21.619576 0 0 0 84.489263,68.15508 L 81.962748,65.600417 A 18.016427,18.016427 0 0 1 69.302029,70.808271 18.016427,18.016427 0 0 1 51.285664,52.791906 18.016427,18.016427 0 0 1 69.302029,34.775542 Z"
     fill="url(#m)"
     id="path85"
     style="fill:url(#m);stroke-width:3.60327" />
</svg>

<svg width="136.53" height="136.53" version="1.1" viewBox="0 0 136.53 136.53" xmlns="http://www.w3.org/2000/svg">
<defs>
<linearGradient id="o" x1="14" x2="23" y1="10" y2="19" gradientTransform="matrix(3.6033 0 0 3.6033 11.65 9.5526)" gradientUnits="userSpaceOnUse">
<stop stop-color="#292c2f" offset="0"/>
<stop stop-color="#292c2f" stop-opacity=".030612" offset="1"/>
</linearGradient>
<linearGradient id="n" x1="19.514" x2="15" y1="15.555" y2="11" gradientTransform="matrix(3.6033 0 0 3.6033 11.65 9.5526)" gradientUnits="userSpaceOnUse">
<stop stop-color="#f3f3f3" offset="0"/>
<stop stop-color="#fcfcfc" stop-opacity="0" offset="1"/>
</linearGradient>
<linearGradient id="m" x1="16" x2="16" y1="18" y2="6" gradientTransform="matrix(3.6033 0 0 3.6033 11.65 9.5526)" gradientUnits="userSpaceOnUse">
<stop stop-color="#f0f0f0" offset="0"/>
<stop stop-color="#fcfcfc" offset="1"/>
</linearGradient>
</defs>
<radialGradient id="b" cx="199.22" cy="60.978" r="62.148" gradientTransform="matrix(1.0119 3e-8 -1.5e-7 5.0958 -134.28 -251.23)" gradientUnits="userSpaceOnUse">
<stop stop-color="#e6e6e8" offset="0"/>
<stop stop-color="#cbccce" offset="1"/>
</radialGradient>
<radialGradient id="c" cx="199.22" cy="60.978" r="62.148" gradientTransform="matrix(1.3103 -4e-8 1e-7 3.6151 -193.73 -160.94)" gradientUnits="userSpaceOnUse">
<stop stop-color="#ececef" offset="0"/>
<stop stop-color="#cbccce" stop-opacity="0" offset="1"/>
</radialGradient>
<filter id="d" x="-.01448" y="-.017314" width="1.029" height="1.0346" color-interpolation-filters="sRGB">
<feGaussianBlur stdDeviation=".74992302"/>
</filter>
<linearGradient id="e" x1="174.79" x2="174.86" y1="109.47" y2="118.12" gradientUnits="userSpaceOnUse">
<stop stop-color="#909090" offset="0"/>
<stop stop-color="#727272" stop-opacity="0" offset="1"/>
</linearGradient>
<radialGradient id="f" cx="178.79" cy="120.7" r="22.055" gradientTransform="matrix(3.8591 -2.3e-7 0 .1388 -511.17 103.95)" gradientUnits="userSpaceOnUse"/>
<filter id="g" x="-.024992" y="-.504" width="1.05" height="2.008" color-interpolation-filters="sRGB">
<feGaussianBlur stdDeviation=".32830532"/>
</filter>
<filter id="h" x="-.080467" y="-.24545" width="1.1609" height="1.4909" color-interpolation-filters="sRGB">
<feGaussianBlur stdDeviation="1.4789442"/>
</filter>
<linearGradient id="i" x1="183.06" x2="183.06" y1="129.42" y2="127.06" gradientUnits="userSpaceOnUse"/>
<linearGradient id="j" x1="23.844" x2="23.816" y1="17.574" y2="85.151" gradientUnits="userSpaceOnUse">
<stop stop-color="#1bd2fa" offset="0"/>
<stop stop-color="#1c7ef2" offset="1"/>
</linearGradient>
<rect x="5.1564" y="8.7788" width="124.3" height="103.95" rx="5.6616" fill="#1a1a1a" filter="url(#d)" opacity=".887"/>
<rect x="5.1564" y="8.7788" width="124.3" height="103.95" rx="5.6616" fill="url(#b)"/>
<rect x="5.1564" y="8.7788" width="124.3" height="103.95" rx="5.6616" fill="url(#c)"/>
<path d="m10.818 8.778c-3.1366 0-5.6621 2.5256-5.6621 5.6621v75.664h124.3v-75.664c0-3.1366-2.5256-5.6621-5.6621-5.6621z" fill="#080808"/>
<path d="m10.318 12.353h113.49v73.329h-113.49z" fill="url(#j)"/>
<path d="m5.1558 106.01v1.0566c0 3.1366 2.5256 5.6621 5.6621 5.6621h112.97c3.1366 0 5.6621-2.5256 5.6621-5.6621v-1.0566c0 3.1366-2.5256 5.6621-5.6621 5.6621h-112.97c-3.1366 0-5.6621-2.5256-5.6621-5.6621z" fill="#afafaf"/>
<g transform="translate(-111.48 -1.4739)">
<path d="m194.34 114.95c-0.0882 3.6995-0.94643 7.8217 4.9506 11.334 4.7067 2.9258-2.6114 3.1267-4.4295 3.1267h-5.6672-26.478c-1.8181 0-9.1362-0.20092-4.4295-3.1267 5.8971-3.5127 5.0389-7.6349 4.9506-11.334z" filter="url(#h)"/>
<path d="m194.34 113.47c-0.0882 3.6995-0.94643 7.8217 4.9506 11.334 4.7067 2.9258-2.6114 3.1267-4.4295 3.1267-10.492 0.46272-21.162 0.7623-32.145 0-1.8181 0-9.1362-0.20092-4.4295-3.1267 5.8971-3.5127 5.0389-7.6349 4.9506-11.334z" fill="#e0e1e6"/>
<path d="m194.34 113.47c-0.0882 3.6995-0.94643 7.8217 4.9506 11.334 4.7067 2.9258-2.6114 3.1267-4.4295 3.1267h-5.6672-26.478c-1.8181 0-9.1362-0.20092-4.4295-3.1267 5.8971-3.5127 5.0389-7.6349 4.9506-11.334z" fill="url(#e)"/>
<path d="m194.34 113.47c-0.0882 3.6995-0.94643 7.8217 4.9506 11.334 4.7067 2.9258-2.6114 3.1267-4.4295 3.1267h-5.6672-26.478c-1.8181 0-9.1362-0.20092-4.4295-3.1267 5.8971-3.5127 5.0389-7.6349 4.9506-11.334z" fill="url(#f)"/>
<ellipse cx="178.29" cy="127.15" rx="15.764" ry=".78168" fill="#fff" filter="url(#g)" opacity=".887"/>
<path d="m194.34 113.47c-0.0882 3.6995-0.94643 7.8217 4.9506 11.334 4.7067 2.9258-2.6114 3.1267-4.4295 3.1267h-5.6672-26.478c-1.8181 0-9.1362-0.20092-4.4295-3.1267 5.8971-3.5127 5.0389-7.6349 4.9506-11.334z" fill="url(#i)"/>
</g>
<path d="m71.574021 102.89623c-.16003.36969-.34945.70998-.56891 1.02284-.29914.42652-.54408.72174-.73285.8857-.29261.26911-.60613.4069-.94186.41475-.24102 0-.53167-.0687-.87001-.2077-.33945-.13848-.6514-.20705-.93664-.20705-.29915 0-.61998.0687-.96315.20705-.3437.13913-.62057.21162-.83226.21882-.32195.0137-.64285-.12802-.96316-.42587-.20444-.1783-.46015-.48401-.76648-.91705-.32868-.46244-.59889-.99867-.81058-1.61005-.22671-.66033-.34036-1.29979-.34036-1.91887 0-.709129.15323-1.320749.46015-1.833297.24121-.41168.56211-.73643.96374-.97484.40163-.2384.83559-.35988 1.30293-.36765.25572 0 .59105.0791 1.00777.23454.41554.15598.68236.23507.79934.23507.0875 0 .38386-.0925.88634-.27687.47518-.171.87622-.2418 1.20476-.21391.89026.0718 1.5591.4228 2.00391 1.05506-.79621.482408-1.19007 1.158128-1.18223 2.024917.007.6752.25212 1.23703.7335 1.68314.21816.20707.46179.36709.73285.48075-.0588.17044-.12084.33376-.1868.49052zm-2.04179-8.034565c0 .5292-.19334 1.02331-.5787 1.480648-.46506.5437-1.02756.85787-1.63755.80829-.008-.0634-.0123-.13031-.0123-.20052 0-.50803.22116-1.051724.61391-1.496261.19608-.225079.44546-.412238.74787-.561532.30176-.147062.5872-.228391.85564-.242321.008.07076.0112.141499.0112.211686z" fill="#1e1f28" stroke-width=".065316"/>
<path d="m10.318 12.352v73.33h113.49v-73.33zm0.55273 0.50781h112.48v72.361h-112.48z" fill-opacity=".21198"/>
<path d="m10.818 9.0273c-3.1366 0-5.6621 2.5256-5.6621 5.6621v75.414h124.3v-75.414c0-3.1366-2.5255-5.6621-5.6621-5.6621zm-0.5 5.3262h113.49v71.328h-113.49z" fill="#080808"/>
<path d="m69.619 31.172a21.62 21.62 0 0 0-15.602 6.3339 21.62 21.62 0 0 0 0 30.572l17.144 17.144h52.191v-8.9519l-38.763-38.763a21.62 21.62 0 0 0-14.969-6.3339z" fill="url(#o)" opacity=".25" stroke-width="3.6033"/>
<path d="m69.302 31.172a21.62 21.62 0 0 0-21.62 21.62 21.62 21.62 0 0 0 21.62 21.62 21.62 21.62 0 0 0 21.62-21.62 21.62 21.62 0 0 0-21.62-21.62zm0 3.6033a18.016 18.016 0 0 1 18.016 18.016 18.016 18.016 0 0 1-18.016 18.016 18.016 18.016 0 0 1-18.016-18.016 18.016 18.016 0 0 1 18.016-18.016z" fill="url(#n)" stroke-width="3.6033"/>
<path d="m69.302 31.172a21.62 21.62 0 0 0-21.62 21.62 21.62 21.62 0 0 0 21.62 21.62 21.62 21.62 0 0 0 15.187-6.2565l-2.5265-2.5547a18.016 18.016 0 0 1-12.661 5.2079 18.016 18.016 0 0 1-18.016-18.016 18.016 18.016 0 0 1 18.016-18.016z" fill="url(#m)" stroke-width="3.6033"/>
</svg>
